austria/municipalities/31344.svg

<?xml version="1.0" encoding="UTF-8" standalone="no"?>
<!-- Created with Inkscape (http://www.inkscape.org/) -->

<svg
   xmlns:dc="http://purl.org/dc/elements/1.1/"
   xmlns:cc="http://creativecommons.org/ns#"
   xmlns:rdf="http://www.w3.org/1999/02/22-rdf-syntax-ns#"
   xmlns:svg="http://www.w3.org/2000/svg"
   xmlns="http://www.w3.org/2000/svg"
   xmlns:sodipodi="http://sodipodi.sourceforge.net/DTD/sodipodi-0.dtd"
   xmlns:inkscape="http://www.inkscape.org/namespaces/inkscape"
   width="194.25996mm"
   height="208.75252mm"
   viewBox="0 0 194.25996 208.75252"
   version="1.1"
   id="svg997"
   inkscape:version="0.92.4 (5da689c313, 2019-01-14)"
   sodipodi:docname="AUT Spitz in der Wachau COA.svg">
  <defs
     id="defs991">
    <inkscape:path-effect
       effect="spiro"
       id="path-effect1899"
       is_visible="true" />
    <inkscape:path-effect
       effect="spiro"
       id="path-effect1877"
       is_visible="true" />
    <inkscape:path-effect
       effect="spiro"
       id="path-effect1790"
       is_visible="true" />
    <inkscape:path-effect
       effect="spiro"
       id="path-effect1790-6"
       is_visible="true" />
    <inkscape:path-effect
       effect="spiro"
       id="path-effect1877-7"
       is_visible="true" />
    <inkscape:path-effect
       effect="spiro"
       id="path-effect1899-2"
       is_visible="true" />
    <inkscape:path-effect
       effect="spiro"
       id="path-effect1899-6"
       is_visible="true" />
  </defs>
  <sodipodi:namedview
     id="base"
     pagecolor="#ffffff"
     bordercolor="#666666"
     borderopacity="1.0"
     inkscape:pageopacity="0.0"
     inkscape:pageshadow="2"
     inkscape:zoom="0.6945625"
     inkscape:cx="367.10545"
     inkscape:cy="394.49296"
     inkscape:document-units="mm"
     inkscape:current-layer="layer1"
     showgrid="false"
     inkscape:window-width="1366"
     inkscape:window-height="745"
     inkscape:window-x="-8"
     inkscape:window-y="-8"
     inkscape:window-maximized="1"
     inkscape:snap-midpoints="true"
     inkscape:snap-smooth-nodes="true"
     fit-margin-top="0"
     fit-margin-left="0"
     fit-margin-right="0"
     fit-margin-bottom="0"
     inkscape:object-paths="false"
     inkscape:snap-nodes="true"
     showguides="false" />
  <metadata
     id="metadata994">
    <rdf:RDF>
      <cc:Work
         rdf:about="">
        <dc:format>image/svg+xml</dc:format>
        <dc:type
           rdf:resource="http://purl.org/dc/dcmitype/StillImage" />
        <dc:title></dc:title>
      </cc:Work>
    </rdf:RDF>
  </metadata>
  <g
     inkscape:label="Ebene 1"
     inkscape:groupmode="layer"
     id="layer1"
     transform="translate(-19.152243,-5.1949657)">
    <path
       style="fill:#ffffff;stroke:none;stroke-width:2.9104166;stroke-linecap:butt;stroke-linejoin:miter;stroke-miterlimit:4;stroke-dasharray:none;stroke-opacity:1"
       d="M 58.777963,6.5131047 20.607343,27.891644 c 5.24877,4.047904 9.25521,9.557319 11.40135,15.677599 3.24523,9.25456 2.2024,19.35438 0.4961,28.97962 -2.99913,16.91799 -7.9476,33.672687 -7.932,50.833077 0.0185,20.23937 7.28643,40.52201 20.82054,56.05911 13.37623,15.35586 34.32247,25.54561 54.755547,30.87977 10.37729,2.70903 21.88889,2.70903 32.26614,0 20.43309,-5.33416 41.37933,-15.52391 54.75557,-30.87977 13.53411,-15.5371 20.80213,-35.81974 20.82054,-56.05911 0.0156,-17.16039 -4.93232,-33.915087 -7.93145,-50.833077 -1.70631,-9.62524 -2.74968,-19.72506 0.49554,-28.97962 2.14615,-6.12028 6.15312,-11.629695 11.40191,-15.677599 L 173.78596,6.5131047 c -4.70053,3.5169783 -9.67584,6.6962153 -14.87129,9.5017443 -7.77905,4.200683 -16.0873,7.572587 -24.78653,9.501228 -5.84455,1.295752 -11.84738,1.935298 -17.84617,1.900661 -5.9988,0.03464 -12.00164,-0.604909 -17.846197,-1.900661 -8.69924,-1.928641 -17.00694,-5.300545 -24.786,-9.501228 -5.19543,-2.805529 -10.17129,-5.984766 -14.87181,-9.5017443 z"
       id="path1788-9-7"
       inkscape:connector-curvature="0"
       sodipodi:nodetypes="ccssssaassssccsscssc" />
    <path
       style="fill:none;stroke:#000000;stroke-width:2.9104166;stroke-linecap:butt;stroke-linejoin:round;stroke-miterlimit:4;stroke-dasharray:none;stroke-opacity:1"
       d="M 58.777954,6.6501463 20.607334,28.028686 c 5.24877,4.047903 9.25521,9.557322 11.40135,15.677595 3.24523,9.254564 2.2024,19.354381 0.4961,28.979627 -2.99913,16.917987 -7.9476,33.672682 -7.932,50.833072 0.0185,20.23937 7.28643,40.52201 20.82054,56.05911 13.37623,15.35586 34.322469,25.54561 54.755556,30.87977 10.37729,2.70903 21.88889,2.70903 32.26614,0 20.43309,-5.33416 41.37932,-15.52391 54.75556,-30.87977 13.53411,-15.5371 20.80213,-35.81974 20.82054,-56.05911 0.0156,-17.16039 -4.93232,-33.915085 -7.93145,-50.833072 -1.70631,-9.625246 -2.74968,-19.725063 0.49554,-28.979627 2.14615,-6.120273 6.15312,-11.629692 11.40191,-15.677595 L 173.78595,6.6501463 c -4.70053,3.5169787 -9.67584,6.6962157 -14.87128,9.5017447 -7.77905,4.200683 -16.0873,7.572587 -24.78653,9.501228 -5.84455,1.295752 -11.84738,1.935298 -17.84617,1.900661 -5.9988,0.03464 -12.00164,-0.604909 -17.846205,-1.900661 -8.699241,-1.928641 -17.00694,-5.300545 -24.786,-9.501228 -5.19543,-2.805529 -10.17129,-5.984766 -14.871811,-9.5017447 z"
       id="path1788-9"
       inkscape:connector-curvature="0"
       sodipodi:nodetypes="ccssssaassssccsscssc" />
    <path
       style="fill:#ff0000;stroke:#000000;stroke-width:2.9104166;stroke-linecap:butt;stroke-linejoin:round;stroke-miterlimit:4;stroke-dasharray:none;stroke-opacity:1;fill-opacity:1"
       d="m -191.96252,28.02869 c 11.14936,6.669576 18.97035,18.630753 20.60913,31.518962 0.94328,7.418466 -0.0568,14.925895 -0.79247,22.367815 -0.73569,7.44192 -1.19152,15.079148 0.79247,22.289363 2.39228,8.694 8.21819,16.1501 15.20244,21.85352 8.68772,7.09449 19.67184,11.83305 30.87997,11.40183 8.10812,-0.31195 16.08634,-3.36744 22.32859,-8.55137 -5.80446,6.86459 -9.21001,15.71902 -9.50153,24.70397 -0.33117,10.20705 3.32483,20.37182 9.50153,28.50458 5.688218,7.48959 13.512126,13.35357 22.328588,16.62768 9.987453,3.70897 21.432512,3.98895 31.166152,-0.34256 4.545975,-2.02298 8.616201,-4.9729 12.491418,-8.09396 4.098377,-3.30079 8.029252,-6.82564 11.556934,-10.73043 6.198042,-6.86061 11.111868,-14.87755 14.412481,-23.51408 z"
       id="path1897"
       inkscape:connector-curvature="0"
       inkscape:path-effect="#path-effect1899"
       inkscape:original-d="m -191.96252,28.02869 c 0,0 17.02509,19.48857 20.60913,31.518962 4.2501,14.266097 -4.45447,30.453569 0,44.657178 2.65542,8.46712 8.18327,16.42446 15.20244,21.85352 8.67934,6.71314 19.90761,11.46791 30.87997,11.40183 7.96988,-0.048 22.32859,-8.55137 22.32859,-8.55137 0,0 -9.30117,15.88351 -9.50153,24.70397 -0.22745,10.01291 3.63151,20.3896 9.50153,28.50458 5.43888,7.51896 13.504015,13.7566 22.328588,16.62768 9.879603,3.21433 21.219481,2.65781 31.166152,-0.34256 4.750091,-1.43284 8.576859,-5.04558 12.491418,-8.09396 4.147547,-3.22982 8.226347,-6.66336 11.556934,-10.73043 5.824596,-7.11257 14.412481,-23.51408 14.412481,-23.51408 z"
       sodipodi:nodetypes="caaaacaaaaaacc"
       transform="translate(212.56985,-4e-6)" />
    <path
       style="fill:#0033ff;stroke:#000000;stroke-width:7.99999952;stroke-linecap:round;stroke-linejoin:round;stroke-miterlimit:4;stroke-dasharray:none;stroke-opacity:1;fill-opacity:1"
       d="M 184.35547 29.484375 L 205.66211 125.92383 L 310.46094 197.61328 L 283.41602 76.279297 L 277.38867 72.017578 C 252.55445 64.563518 228.66668 54.189229 205.97461 41.935547 C 198.6486 37.979508 191.4395 33.826557 184.35547 29.484375 z M 283.41602 76.279297 L 388.21484 147.96875 L 374.17578 84.980469 C 371.81917 85.021855 369.46242 85.042903 367.10547 85.029297 C 344.43284 85.160069 321.74395 82.743064 299.6543 77.845703 C 293.99819 76.591731 288.3901 75.164613 282.82422 73.599609 L 283.41602 76.279297 z M 388.21484 147.96875 L 415.60742 271.95117 L 520.4043 343.64062 L 493.36133 222.30664 L 388.21484 147.96875 z M 493.36133 222.30664 L 598.1582 293.99609 L 571.11523 172.66211 L 465.96875 98.324219 L 493.36133 222.30664 z M 465.96875 98.324219 L 459.89648 71.083984 C 451.91435 73.564999 443.83215 75.745449 435.6582 77.589844 L 465.96875 98.324219 z M 571.11523 172.66211 L 675.91211 244.35156 L 648.86914 123.01758 L 543.72266 48.679688 L 571.11523 172.66211 z M 543.72266 48.679688 L 540.66406 34.953125 C 537.58231 36.743948 534.47727 38.497278 531.35156 40.216797 L 543.72266 48.679688 z M 648.86914 123.01758 L 685.05078 147.76953 C 685.23938 147.2058 685.42005 146.64022 685.61719 146.07812 C 693.72858 122.94639 708.87299 102.12337 728.71094 86.824219 L 628.46875 30.681641 L 648.86914 123.01758 z M 675.91211 244.35156 L 703.30469 368.33398 L 598.1582 293.99609 L 625.55078 417.97852 L 520.4043 343.64062 L 547.79688 467.62305 L 442.65039 393.28516 L 443.25 395.99609 L 548.41406 470.39844 L 547.79688 467.625 L 652.5957 539.3125 L 625.55078 417.98047 L 712.32227 477.33594 C 713.23714 467.49118 713.71366 457.61071 713.72266 447.73242 C 713.73777 432.87521 712.75649 418.09908 711.11523 403.37695 L 703.30469 368.33594 L 706.43164 370.47461 C 699.9705 332.09892 690.54362 293.96309 683.74414 255.60742 C 683.36063 253.44406 682.98791 251.27266 682.625 249.09766 L 675.91211 244.35156 z M 442.65039 393.28516 L 415.60742 271.95117 L 310.46094 197.61328 L 337.81055 321.40234 L 344.85742 326.38672 L 442.65039 393.28516 z M 205.66211 125.92383 L 100.51562 51.585938 L 127.20898 172.4082 L 232.64844 247.00195 L 205.66211 125.92383 z M 100.51562 51.585938 L 96.953125 35.603516 L 86.066406 41.701172 L 100.51562 51.585938 z "
       transform="matrix(0.26458333,0,0,0.26458333,19.152243,5.1949657)"
       id="path1911-4-4-5" />
    <path
       style="fill:none;fill-opacity:1;stroke:#000000;stroke-width:2.9104166;stroke-linecap:butt;stroke-linejoin:round;stroke-miterlimit:4;stroke-dasharray:none;stroke-opacity:1"
       d="m -191.96252,28.02869 c 11.14936,6.669576 18.97035,18.630753 20.60913,31.518962 0.94328,7.418466 -0.0568,14.925895 -0.79247,22.367815 -0.73569,7.44192 -1.19152,15.079148 0.79247,22.289363 2.39228,8.694 8.21819,16.1501 15.20244,21.85352 8.68772,7.09449 19.67184,11.83305 30.87997,11.40183 8.10812,-0.31195 16.08634,-3.36744 22.32859,-8.55137 -5.80446,6.86459 -9.21001,15.71902 -9.50153,24.70397 -0.33117,10.20705 3.32483,20.37182 9.50153,28.50458 5.688218,7.48959 13.512126,13.35357 22.328588,16.62768 9.987453,3.70897 21.432512,3.98895 31.166152,-0.34256 4.545975,-2.02298 8.616201,-4.9729 12.491418,-8.09396 4.098377,-3.30079 8.029252,-6.82564 11.556934,-10.73043 6.198042,-6.86061 11.111868,-14.87755 14.412481,-23.51408 z"
       id="path1897-0"
       inkscape:connector-curvature="0"
       inkscape:path-effect="#path-effect1899-6"
       inkscape:original-d="m -191.96252,28.02869 c 0,0 17.02509,19.48857 20.60913,31.518962 4.2501,14.266097 -4.45447,30.453569 0,44.657178 2.65542,8.46712 8.18327,16.42446 15.20244,21.85352 8.67934,6.71314 19.90761,11.46791 30.87997,11.40183 7.96988,-0.048 22.32859,-8.55137 22.32859,-8.55137 0,0 -9.30117,15.88351 -9.50153,24.70397 -0.22745,10.01291 3.63151,20.3896 9.50153,28.50458 5.43888,7.51896 13.504015,13.7566 22.328588,16.62768 9.879603,3.21433 21.219481,2.65781 31.166152,-0.34256 4.750091,-1.43284 8.576859,-5.04558 12.491418,-8.09396 4.147547,-3.22982 8.226347,-6.66336 11.556934,-10.73043 5.824596,-7.11257 14.412481,-23.51408 14.412481,-23.51408 z"
       sodipodi:nodetypes="caaaacaaaaaacc"
       transform="translate(212.56985,-4e-6)" />
  </g>
</svg>

<svg xmlns="http://www.w3.org/2000/svg" width="734.211" height="788.986" viewBox="0 0 194.26 208.753"><path style="fill:#fff;stroke:none;stroke-width:2.9104166;stroke-linecap:butt;stroke-linejoin:miter;stroke-miterlimit:4;stroke-dasharray:none;stroke-opacity:1" d="m58.778 6.513-38.17 21.379c5.248 4.048 9.255 9.557 11.4 15.677 3.246 9.255 2.203 19.355.497 28.98-3 16.918-7.948 33.673-7.932 50.833.018 20.24 7.286 40.522 20.82 56.059 13.377 15.356 34.323 25.546 54.756 30.88 10.377 2.709 21.889 2.709 32.266 0 20.433-5.334 41.38-15.524 54.756-30.88 13.534-15.537 20.802-35.82 20.82-56.06.016-17.16-4.932-33.914-7.931-50.832-1.707-9.625-2.75-19.725.495-28.98 2.146-6.12 6.153-11.63 11.402-15.677L173.786 6.513a120.039 120.039 0 0 1-14.871 9.502c-7.78 4.2-16.088 7.572-24.787 9.501a80.42 80.42 0 0 1-17.846 1.9 80.42 80.42 0 0 1-17.846-1.9c-8.7-1.929-17.007-5.3-24.786-9.501a120.046 120.046 0 0 1-14.872-9.502z" transform="translate(-19.152 -5.195)"/><path style="fill:none;stroke:#000;stroke-width:2.9104166;stroke-linecap:butt;stroke-linejoin:round;stroke-miterlimit:4;stroke-dasharray:none;stroke-opacity:1" d="M58.778 6.65 20.608 28.03c5.248 4.048 9.255 9.557 11.4 15.677 3.246 9.255 2.203 19.355.497 28.98-3 16.918-7.948 33.673-7.932 50.833.018 20.24 7.286 40.522 20.82 56.06 13.377 15.355 34.323 25.545 54.756 30.879 10.377 2.709 21.889 2.709 32.266 0 20.433-5.334 41.38-15.524 54.756-30.88 13.534-15.537 20.802-35.82 20.82-56.059.016-17.16-4.932-33.915-7.931-50.833-1.707-9.625-2.75-19.725.495-28.98 2.146-6.12 6.153-11.63 11.402-15.677L173.786 6.65a120.04 120.04 0 0 1-14.871 9.502c-7.78 4.2-16.088 7.572-24.787 9.501a80.42 80.42 0 0 1-17.846 1.9 80.42 80.42 0 0 1-17.846-1.9c-8.7-1.929-17.007-5.3-24.786-9.501A120.046 120.046 0 0 1 58.778 6.65z" transform="translate(-19.152 -5.195)"/><path style="fill:red;stroke:#000;stroke-width:2.9104166;stroke-linecap:butt;stroke-linejoin:round;stroke-miterlimit:4;stroke-dasharray:none;stroke-opacity:1;fill-opacity:1" d="M-191.963 28.029c11.15 6.67 18.97 18.63 20.61 31.519.943 7.418-.057 14.926-.793 22.367-.736 7.442-1.191 15.08.793 22.29 2.392 8.694 8.218 16.15 15.202 21.853 8.688 7.095 19.672 11.833 30.88 11.402 8.108-.312 16.086-3.367 22.329-8.551-5.805 6.864-9.21 15.719-9.502 24.704-.331 10.207 3.325 20.372 9.502 28.504 5.688 7.49 13.512 13.354 22.328 16.628 9.988 3.709 21.433 3.989 31.166-.343 4.546-2.022 8.617-4.972 12.492-8.093 4.098-3.301 8.029-6.826 11.557-10.73a75.244 75.244 0 0 0 14.412-23.515z" transform="translate(193.418 -5.195)"/><path style="fill:#03f;stroke:#000;stroke-width:7.99999952;stroke-linecap:round;stroke-linejoin:round;stroke-miterlimit:4;stroke-dasharray:none;stroke-opacity:1;fill-opacity:1" d="m184.355 29.484 21.307 96.44 104.799 71.69-27.045-121.335-6.027-4.261c-24.835-7.454-48.722-17.829-71.414-30.082a455.687 455.687 0 0 1-21.62-12.452zm99.061 46.795 104.799 71.69-14.04-62.989c-2.356.042-4.713.063-7.07.05a303.967 303.967 0 0 1-67.45-7.184 310.351 310.351 0 0 1-16.83-4.246l.591 2.68zm104.799 71.69 27.392 123.982 104.797 71.69-27.043-121.334-105.146-74.338zm105.146 74.338 104.797 71.69-27.043-121.335L465.97 98.324l27.392 123.983zM465.97 98.324l-6.073-27.24a316.022 316.022 0 0 1-24.238 6.506l30.31 20.734zm105.146 74.338 104.797 71.69-27.043-121.334L543.723 48.68l27.392 123.982zM543.723 48.68l-3.059-13.727a455.696 455.696 0 0 1-9.312 5.264l12.37 8.463zm105.146 74.338 36.182 24.752c.188-.564.369-1.13.566-1.692 8.112-23.132 23.256-43.955 43.094-59.254L628.469 30.682l20.4 92.336zm27.043 121.334 27.393 123.982-105.147-74.338 27.393 123.983-105.147-74.338 27.393 123.982-105.147-74.338.6 2.711 105.164 74.402-.617-2.773 104.799 71.688L625.55 417.98l86.771 59.356a323.165 323.165 0 0 0 1.4-29.604c.016-14.857-.966-29.633-2.607-44.355l-7.81-35.041 3.127 2.139c-6.462-38.376-15.888-76.512-22.688-114.868a652.914 652.914 0 0 1-1.119-6.51l-6.713-4.745zM442.65 393.285l-27.043-121.334-105.146-74.338 27.35 123.79 7.046 4.984 97.793 66.898zM205.662 125.924 100.516 51.586l26.693 120.822 105.44 74.594-26.987-121.078zM100.516 51.586l-3.563-15.982L86.066 41.7l14.45 9.885z" transform="scale(.26458)"/><path style="fill:none;fill-opacity:1;stroke:#000;stroke-width:2.9104166;stroke-linecap:butt;stroke-linejoin:round;stroke-miterlimit:4;stroke-dasharray:none;stroke-opacity:1" d="M-191.963 28.029c11.15 6.67 18.97 18.63 20.61 31.519.943 7.418-.057 14.926-.793 22.367-.736 7.442-1.191 15.08.793 22.29 2.392 8.694 8.218 16.15 15.202 21.853 8.688 7.095 19.672 11.833 30.88 11.402 8.108-.312 16.086-3.367 22.329-8.551-5.805 6.864-9.21 15.719-9.502 24.704-.331 10.207 3.325 20.372 9.502 28.504 5.688 7.49 13.512 13.354 22.328 16.628 9.988 3.709 21.433 3.989 31.166-.343 4.546-2.022 8.617-4.972 12.492-8.093 4.098-3.301 8.029-6.826 11.557-10.73a75.244 75.244 0 0 0 14.412-23.515z" transform="translate(193.418 -5.195)"/></svg>
